korla/apps/symbolic/utilities-system-monitor-symbolic.svg

<svg style="clip-rule:evenodd;fill-rule:evenodd;stroke-linejoin:round;stroke-miterlimit:2" version="1.1" viewBox="0 0 16 16" xmlns="http://www.w3.org/2000/svg">
 <path d="m9.31 4.97c0.26-0.08 0.56 0.09 0.63 0.34l1.43 4.69h2.63v1h-3c-0.21 0-0.4-0.15-0.47-0.34l-1.06-3.47-1.53 5.43c-0.11 0.35-0.66 0.45-0.88 0.16l-1.31-1.78h-3.75v-1h4c0.16 0 0.32 0.09 0.41 0.22l0.87 1.19 1.69-6.1c0.05-0.16 0.18-0.29 0.34-0.34z" style="fill:rgb(223,223,223)"/>
 <path d="m2 1c-1.108 0-2 0.892-2 2v10c0 1.108 0.892 2 2 2h12c1.108 0 2-0.892 2-2v-10c0-1.108-0.892-2-2-2h-12zm0 0.8h12c0.665 0 1.2 0.535 1.2 1.2v10c0 0.665-0.535 1.2-1.2 1.2h-12c-0.665 0-1.2-0.535-1.2-1.2v-10c0-0.665 0.535-1.2 1.2-1.2z" style="fill:rgb(223,223,223)"/>
</svg>

<svg xmlns="http://www.w3.org/2000/svg" width="16" height="16" version="1.1">
 <path style="fill:#dfdfdf" d="M 2,1 C 0,1 0,3 0,3 V 13 C 0,15 2,15 2,15 H 14 C 16,15 16,13 16,13 V 3 C 16,3 16,1 14,1 Z M 9.31,4.97 C 9.57,4.89 9.87,5.06 9.94,5.31 L 11.37,10 H 14 V 11 H 11 C 10.79,11 10.6,10.85 10.53,10.66 L 9.47,7.19 7.94,12.62 C 7.83,12.97 7.28,13.07 7.06,12.78 L 5.75,11 H 2 V 10 H 6 C 6.16,10 6.32,10.09 6.41,10.22 L 7.28,11.41 8.97,5.31 C 9.02,5.15 9.15,5.02 9.31,4.97 Z"/>
</svg>
